X:15
T:96. The Old Sunny Banks
S:Mike Rafferty
Z:Lesl
M:C|
L:1/8
K:D
FG|:A{B}AFA BAFG|ABAF G{A}GFG|Az (3FGA BAFG|ABAF D2zF|
AzFA BAFG|ABAF G{A}GFG|A{B}AFA BAFz|ABAF d2ze||
|fded cAaz|faef geag|fded cAAz|BGAF d2ze|
|fded cAAz|faef ggag|fded cAAz|BGAF D4||

